packages/sources/assets/src/assets/cadhoc.svg

<svg width="58" height="40" viewBox="0 0 58 40" fill="none" xmlns="http://www.w3.org/2000/svg">
<rect x="0.5" y="0.5" width="57" height="39" rx="3.5" fill="white" stroke="#F3F3F3"/>
<path d="M3.28583 24.785H11.7714V16.245H3.28583V24.785Z" fill="#F39301"/>
<path fill-rule="evenodd" clip-rule="evenodd" d="M20.3716 24.661C20.0132 24.8723 19.3704 24.9843 18.9872 24.9843C16.366 24.9843 14.6228 23.006 14.6228 20.5177C14.6228 18.054 16.4031 16.0507 18.9375 16.0507C19.3455 16.0508 19.9639 16.1503 20.31 16.3618L20.5819 18.3402C20.1368 17.9793 19.5681 17.7305 18.8633 17.7305C17.3674 17.7305 16.3289 19.0743 16.3289 20.5177C16.3289 22.1103 17.5158 23.3047 18.9375 23.3047C19.6175 23.3047 20.149 22.9563 20.5942 22.5957L20.3716 24.661ZM23.9696 23.6657C24.526 23.6657 25.1192 23.3297 25.1192 22.7573C25.1192 22.1973 24.526 21.849 23.9696 21.849C23.4131 21.849 22.8196 22.1973 22.8196 22.7573C22.8196 23.3297 23.4131 23.6657 23.9696 23.6657ZM24.2663 18.2655C23.6605 18.2655 23.0422 18.3277 22.449 18.4397L22.0161 19.9576C22.5848 19.7336 23.1783 19.5843 23.7963 19.5843C24.526 19.5843 25.144 19.7463 25.144 20.6046C25.144 20.714 25.1327 20.8064 25.1215 20.897V20.897V20.8971L25.1215 20.8971C25.1162 20.9404 25.1109 20.9834 25.1069 21.0276C24.5011 20.7166 24.056 20.6046 23.376 20.6046C22.2016 20.6046 21.2497 21.6126 21.2497 22.7573C21.2497 24.2006 22.288 24.9843 23.6234 24.9843C24.2044 24.9843 24.7608 24.7606 25.1934 24.3873V24.9346L26.6275 24.7853V20.045C26.6275 18.7632 25.3911 18.2655 24.2663 18.2655ZM30.7941 23.541C31.8451 23.541 32.6115 22.6577 32.6115 21.625C32.6115 20.5923 31.8451 19.7087 30.7941 19.7087C29.7432 19.7087 28.9768 20.5923 28.9768 21.625C28.9768 22.6577 29.7432 23.541 30.7941 23.541ZM30.5961 24.9843C31.4615 24.9843 31.8944 24.7603 32.5496 24.101V24.1011V24.9347L34.0334 24.7854V16.0507L32.4631 16.2498V18.9374C31.8822 18.4522 31.2267 18.2655 30.5961 18.2657C28.8036 18.2657 27.493 19.8707 27.493 21.625C27.493 23.3793 28.8036 24.9843 30.5961 24.9843ZM35.2449 16.25L36.8149 16.0509V19.062H36.8397C37.2849 18.4648 37.8039 18.2657 38.6819 18.2657C39.9799 18.2657 40.8454 19.0993 40.8454 20.4431V24.7855L39.2751 24.8851V20.8661C39.2751 20.1941 38.9661 19.6345 38.2613 19.6345C37.2723 19.6345 36.8149 20.3935 36.8149 21.1895V24.7855L35.2449 24.8851V16.2501V16.25ZM47.1877 21.625C47.1877 22.7073 46.2481 23.541 45.1849 23.541C44.1217 23.541 43.1821 22.7073 43.1821 21.625C43.1821 20.5427 44.1217 19.7087 45.1849 19.7087C46.2481 19.7087 47.1877 20.5427 47.1877 21.625ZM45.1849 18.2657C47.0393 18.2657 48.6705 19.7215 48.6705 21.625C48.6705 23.5287 47.0393 24.9843 45.1849 24.9843C43.3304 24.9843 41.6986 23.5287 41.6986 21.625C41.6986 19.7213 43.3304 18.2657 45.1849 18.2657ZM52.7776 19.709C53.2578 19.709 53.7016 19.9327 54.1123 20.1817L54.9404 18.9997C54.2481 18.5517 53.5426 18.2655 52.6285 18.2655C50.7969 18.2655 49.1773 19.659 49.1773 21.5753C49.1773 23.703 50.9592 24.9843 52.5788 24.9843C53.3804 24.9843 54.321 24.7977 54.9271 24.188L54.0626 23.056C53.5559 23.3917 53.1949 23.541 52.5523 23.541C51.7376 23.541 50.7472 22.72 50.7472 21.625C50.7472 20.4803 51.615 19.709 52.7776 19.709Z" fill="#495654"/>
<path fill-rule="evenodd" clip-rule="evenodd" d="M6.65496 20.504C6.65496 20.9443 6.55894 21.2825 6.06819 21.2825C5.51868 21.2825 5.46002 20.8852 5.46002 20.563V18.0391L4.75574 18.1953L4.75575 20.665C4.75575 21.6047 5.40661 21.9644 6.03611 21.9644C6.85777 21.9644 7.35913 21.433 7.35913 20.7671V18.0391L6.65497 18.1953V20.504L6.65496 20.504ZM9.09164 21.3417C8.63855 21.3417 8.30767 20.9603 8.30767 20.5148C8.30767 20.0691 8.63855 19.6879 9.09164 19.6879C9.5454 19.6879 9.87628 20.0691 9.87628 20.5148C9.87628 20.9603 9.5454 21.3417 9.09164 21.3417ZM8.37358 19.3077C8.59284 19.1541 8.85152 19.0679 9.13503 19.0679V19.0678C9.89847 19.0678 10.5175 19.7161 10.5175 20.5158C10.5175 21.3155 9.89847 21.9637 9.13503 21.9637C8.85284 21.9637 8.59052 21.875 8.37159 21.723V22.6883L7.6941 22.845V19.0717L8.37358 18.9063V19.3077Z" fill="#FEFEFE"/>
</svg>

<svg width="58" height="40" fill="none" xmlns="http://www.w3.org/2000/svg"><rect x=".5" y=".5" width="57" height="39" rx="3.5" fill="#fff" stroke="#F3F3F3"/><path d="M3.286 24.785h8.485v-8.54H3.286v8.54Z" fill="#F39301"/><path fill-rule="evenodd" clip-rule="evenodd" d="M20.372 24.661c-.359.211-1.002.323-1.385.323-2.621 0-4.364-1.978-4.364-4.466 0-2.464 1.78-4.467 4.315-4.467.408 0 1.026.1 1.372.31l.272 1.98a2.67 2.67 0 0 0-1.719-.61c-1.496 0-2.534 1.343-2.534 2.787 0 1.592 1.187 2.787 2.608 2.787.68 0 1.212-.349 1.657-.71l-.222 2.066Zm3.598-.995c.556 0 1.15-.336 1.15-.909 0-.56-.594-.908-1.15-.908-.557 0-1.15.348-1.15.908 0 .573.593.909 1.15.909Zm.296-5.4a9.88 9.88 0 0 0-1.817.174l-.433 1.518c.569-.224 1.162-.374 1.78-.374.73 0 1.348.162 1.348 1.02 0 .11-.011.202-.022.293a2.717 2.717 0 0 0-.015.13c-.606-.31-1.051-.422-1.731-.422-1.174 0-2.126 1.008-2.126 2.152 0 1.444 1.038 2.227 2.373 2.227.581 0 1.138-.223 1.57-.597v.548l1.434-.15v-4.74c0-1.282-1.236-1.78-2.36-1.78Zm6.528 5.275c1.051 0 1.817-.883 1.817-1.916s-.766-1.916-1.817-1.916c-1.05 0-1.817.883-1.817 1.916s.766 1.916 1.817 1.916Zm-.198 1.443c.866 0 1.298-.224 1.954-.883v.834l1.483-.15v-8.734l-1.57.199v2.687a2.855 2.855 0 0 0-1.867-.671c-1.792 0-3.103 1.605-3.103 3.359s1.31 3.36 3.103 3.36Zm4.649-8.734 1.57-.2v3.012h.025c.445-.597.964-.796 1.842-.796 1.298 0 2.163.833 2.163 2.177v4.342l-1.57.1v-4.019c0-.672-.309-1.232-1.014-1.232-.989 0-1.446.76-1.446 1.555v3.596l-1.57.1V16.25Zm11.943 5.375c0 1.082-.94 1.916-2.003 1.916-1.063 0-2.003-.834-2.003-1.916 0-1.082.94-1.916 2.003-1.916 1.063 0 2.003.834 2.003 1.916Zm-2.003-3.36c1.854 0 3.485 1.456 3.485 3.36s-1.63 3.36-3.485 3.36-3.486-1.456-3.486-3.36 1.631-3.36 3.486-3.36Zm7.593 1.444c.48 0 .924.224 1.334.473L54.94 19c-.692-.448-1.397-.735-2.311-.735-1.832 0-3.452 1.394-3.452 3.31 0 2.128 1.782 3.41 3.402 3.41.801 0 1.742-.187 2.348-.797l-.864-1.132c-.507.336-.868.485-1.51.485-.815 0-1.806-.821-1.806-1.916 0-1.145.868-1.916 2.03-1.916Z" fill="#495654"/><path fill-rule="evenodd" clip-rule="evenodd" d="M6.655 20.504c0 .44-.096.778-.587.778-.55 0-.608-.397-.608-.719v-2.524l-.704.156v2.47c0 .94.65 1.3 1.28 1.3.822 0 1.323-.532 1.323-1.198V18.04l-.704.156v2.309Zm2.437.838c-.453 0-.784-.382-.784-.827 0-.446.33-.827.784-.827.453 0 .784.381.784.827 0 .445-.33.827-.784.827Zm-.718-2.034c.219-.154.478-.24.761-.24.763 0 1.383.648 1.383 1.448 0 .8-.62 1.448-1.383 1.448-.282 0-.544-.089-.763-.241v.965l-.678.157v-3.773l.68-.166v.402Z" fill="#FEFEFE"/></svg>
